assets/build/img/logo__car.svg

<svg width="139" height="133" viewBox="0 0 139 133" fill="none" xmlns="http://www.w3.org/2000/svg">
<path d="M130.376 73.3576C130.291 73.2483 130.206 73.1391 130.093 73.0571L125.213 68.5218C129.242 67.6475 133.61 64.3689 133.61 61.0357C133.61 57.1288 127.993 55.7627 123.199 55.7627C118.178 55.7627 117.611 59.0686 117.554 61.4182L104.988 49.752C102.434 47.3204 97.5837 45.408 93.981 45.408H69.5H45.019C41.4163 45.408 36.5655 47.3204 34.0124 49.752L21.4457 61.4182C21.389 59.0959 20.7933 55.7627 15.8006 55.7627C11.0065 55.7627 5.3898 57.1561 5.3898 61.0357C5.3898 64.3689 9.73 67.6475 13.7865 68.5218L8.90735 73.0571C8.79388 73.1664 8.70878 73.2483 8.62367 73.3576C3.40408 77.6471 0 85.5976 0 91.3623V108.52C0 112.673 1.70204 116.471 4.45367 119.285V125.951C4.45367 129.831 7.82939 133 11.9994 133H21.1053C25.2753 133 28.651 129.831 28.651 125.951V124.257H69.5H110.349V125.951C110.349 129.858 113.725 133 117.895 133H127.001C131.171 133 134.546 129.831 134.546 125.951V119.285C137.298 116.471 139 112.7 139 108.52V91.3623C139 85.5976 135.596 77.6471 130.376 73.3576ZM38.608 54.9158C40.3667 53.4951 43.4588 52.4295 45.019 52.4295H69.5H93.981C95.5129 52.4295 98.6049 53.4951 100.392 54.9158L116.873 70.2976H69.5H22.1265L38.608 54.9158ZM5.6451 88.7668C5.6451 84.532 9.07755 81.1169 13.3043 81.1169C17.531 81.1169 31.3743 88.9308 31.3743 93.1655C31.3743 97.4003 17.531 96.4168 13.3043 96.4168C9.07755 96.4168 5.6451 93.0016 5.6451 88.7668ZM28.651 116.716H27.2043H25.7292L17.0488 116.744C14.6376 116.033 12.9355 115.187 11.7441 114.285C11.1484 113.82 10.6661 113.356 10.2973 112.892C9.92857 112.427 9.67327 111.935 9.50306 111.471C8.4251 108.547 10.6378 105.843 10.6378 105.843H25.4171L35.289 116.744L28.651 116.716ZM90.7755 116.716H69.5H48.2245C43.7992 116.716 40.1965 113.247 40.1965 108.985H69.5H98.8035C98.8035 113.247 95.2008 116.716 90.7755 116.716ZM92.6194 103.712H69.5H46.3806C41.5582 103.712 37.6435 97.9741 37.6435 90.9252H69.5H101.357C101.357 97.9741 97.4418 103.712 92.6194 103.712ZM129.469 111.443C129.298 111.908 129.015 112.372 128.674 112.864C128.306 113.329 127.852 113.82 127.228 114.258C126.036 115.159 124.334 116.006 121.923 116.716L113.242 116.689H111.796H110.349H103.683L113.554 105.788H128.334C128.306 105.815 130.547 108.493 129.469 111.443ZM125.667 96.4168C121.441 96.4168 107.597 97.4003 107.597 93.1655C107.597 88.9581 121.441 81.1169 125.667 81.1169C129.894 81.1169 133.327 84.532 133.327 88.7668C133.355 93.0016 129.894 96.4168 125.667 96.4168Z" fill="white"/>
<path d="M69.3298 42.7032C73.1368 42.7032 76.2231 39.7308 76.2231 36.0641C76.2231 32.3975 73.1368 29.425 69.3298 29.425C65.5227 29.425 62.4365 32.3975 62.4365 36.0641C62.4365 39.7308 65.5227 42.7032 69.3298 42.7032Z" fill="#FDD762"/>
<path d="M85.7543 20.1084C85.6409 19.9992 85.5558 19.9172 85.4423 19.8352L85.1302 19.562C85.1019 19.48 85.0451 19.4527 84.96 19.3981C76.0527 11.6115 62.4364 11.9121 53.9545 20.1084L52.9617 21.0647L51.5717 22.4034C49.898 24.0154 49.898 26.6655 51.5717 28.2775C53.2453 29.9168 55.997 29.9168 57.6706 28.2775L60.0535 25.9825C65.4433 20.7915 74.2372 20.7915 79.627 25.9825L81.329 27.5945C83.0027 29.2064 85.6976 29.2064 87.3713 27.5672C88.1655 26.8022 88.6194 25.7639 88.6194 24.6438C88.6194 23.5509 88.1939 22.5127 87.3713 21.7477L85.7543 20.1084Z" fill="#FDD762"/>
<path d="M97.4981 11.9151L96.0797 10.549C96.0797 10.549 96.0797 10.5217 96.0513 10.5217L94.9166 9.42886C94.7181 9.23761 94.4911 9.07368 94.2642 8.93708C79.7685 -3.33018 57.6987 -2.94768 43.6568 10.0573C43.6001 10.1119 43.515 10.1665 43.4299 10.2212L40.8485 12.7074C39.3166 14.1828 39.3166 16.587 40.8768 18.0624C42.4087 19.5377 44.905 19.5651 46.4369 18.0897L49.0183 15.6035C49.0466 15.5761 49.0466 15.5488 49.075 15.5488C60.4219 4.97549 78.4352 4.92085 89.8956 15.3303L91.9381 17.2974C93.4699 18.7727 95.9662 18.7727 97.4981 17.2701C99.0015 15.7674 99.0299 13.3904 97.4981 11.9151Z" fill="#FDD762"/>
</svg>

<svg width="139" height="133" fill="none" xmlns="http://www.w3.org/2000/svg"><path d="M130.376 73.358a1.46 1.46 0 00-.283-.3l-4.88-4.536c4.029-.875 8.397-4.153 8.397-7.486 0-3.907-5.617-5.273-10.411-5.273-5.021 0-5.588 3.306-5.645 5.655l-12.566-11.666c-2.554-2.432-7.404-4.344-11.007-4.344H45.019c-3.603 0-8.453 1.912-11.007 4.344L21.446 61.418c-.057-2.322-.653-5.655-5.645-5.655-4.794 0-10.411 1.393-10.411 5.273 0 3.333 4.34 6.611 8.396 7.486l-4.879 4.535c-.113.11-.198.191-.283.3C3.404 77.648 0 85.598 0 91.363v17.158c0 4.153 1.702 7.951 4.454 10.765v6.666c0 3.88 3.375 7.049 7.545 7.049h9.106c4.17 0 7.546-3.169 7.546-7.049v-1.694h81.698v1.694c0 3.907 3.376 7.049 7.546 7.049h9.106c4.17 0 7.545-3.169 7.545-7.049v-6.666c2.752-2.814 4.454-6.585 4.454-10.765V91.362c0-5.764-3.404-13.715-8.624-18.004zM38.608 54.916c1.759-1.42 4.85-2.486 6.411-2.486h48.962c1.532 0 4.624 1.065 6.411 2.486l16.481 15.382H22.127l16.481-15.382zM5.645 88.766c0-4.234 3.433-7.65 7.66-7.65 4.226 0 18.07 7.815 18.07 12.05 0 4.234-13.844 3.25-18.07 3.25-4.227 0-7.66-3.414-7.66-7.65zm23.006 27.95h-2.922l-8.68.028c-2.411-.711-4.114-1.557-5.305-2.459-.596-.465-1.078-.929-1.447-1.393a5.134 5.134 0 01-.794-1.421c-1.078-2.924 1.135-5.628 1.135-5.628h14.78l9.871 10.901-6.638-.028zm62.124 0H48.224c-4.425 0-8.027-3.469-8.027-7.731h58.606c0 4.262-3.602 7.731-8.028 7.731zm1.844-13.004H46.38c-4.822 0-8.736-5.738-8.736-12.787h63.713c0 7.05-3.915 12.787-8.738 12.787zm36.85 7.731c-.171.465-.454.929-.795 1.421a6.833 6.833 0 01-1.446 1.394c-1.192.901-2.894 1.748-5.305 2.458l-8.681-.027H103.683l9.871-10.901h14.78c-.028.027 2.213 2.705 1.135 5.655zm-3.802-15.026c-4.226 0-18.07.983-18.07-3.252 0-4.207 13.844-12.048 18.07-12.048 4.227 0 7.66 3.415 7.66 7.65.028 4.235-3.433 7.65-7.66 7.65z" fill="#fff"/><path d="M69.33 42.703c3.807 0 6.893-2.972 6.893-6.639 0-3.666-3.086-6.639-6.893-6.639s-6.893 2.973-6.893 6.64c0 3.666 3.086 6.638 6.893 6.638z" fill="#FDD762"/><path d="M85.754 20.108c-.113-.109-.198-.19-.312-.273l-.312-.273c-.028-.082-.085-.11-.17-.164-8.907-7.787-22.524-7.486-31.005.71l-.993.957-1.39 1.338a4.064 4.064 0 000 5.875c1.673 1.639 4.425 1.639 6.099 0l2.383-2.295c5.39-5.192 14.183-5.192 19.573 0l1.702 1.611a4.353 4.353 0 006.042-.027 4.035 4.035 0 001.248-2.923 3.91 3.91 0 00-1.248-2.896l-1.617-1.64z" fill="#FDD762"/><path d="M97.498 11.915L96.08 10.55s0-.027-.029-.027l-1.134-1.093a3.674 3.674 0 00-.653-.492C79.77-3.33 57.7-2.948 43.657 10.057c-.057.055-.142.11-.227.164l-2.581 2.486a3.671 3.671 0 00.028 5.355c1.532 1.476 4.028 1.503 5.56.028l2.581-2.486c.029-.028.029-.055.057-.055 11.347-10.574 29.36-10.628 40.82-.219l2.043 1.967c1.532 1.476 4.028 1.476 5.56-.027 1.503-1.503 1.532-3.88 0-5.355z" fill="#FDD762"/></svg>
